bookmark-off-outline.svg

<svg fill="currentColor" viewBox="0 0 24 24"><path d="M3.28 4 2 5.27l3 3V21l7-3 4.78 2.05L18.73 22 20 20.72zM7 18v-7.73l6 5.98-1-.43zM7 5.16 5.5 3.67C5.88 3.26 6.41 3 7 3h10a2 2 0 0 1 2 2v12.16l-2-2V5H7z"/></svg>

<svg  viewBox="0 0 24 24" fill="currentColor"><path  d="M3.28,4L2,5.27L5,8.27V21L12,18L16.78,20.05L18.73,22L20,20.72L3.28,4M7,18V10.27L13,16.25L12,15.82L7,18M7,5.16L5.5,3.67C5.88,3.26 6.41,3 7,3H17A2,2 0 0,1 19,5V17.16L17,15.16V5H7V5.16Z"/></svg>
